X:1
T:Title
%%score { ( 1 4 ) | ( 2 3 ) }
L:1/8
Q:1/4=90
M:6/8
K:D
V:1 treble nm="Grand Piano"
V:4 treble 
V:2 bass 
V:3 bass 
V:1
 F2 F F=F^F | G3 F3 | B>A[A,DA] [DA][CG][A,DF] | [A,CE]6 | [A,DF]2 [A,DF] [DF]G[GB] | [FA]3 [Fd]3 | %6
w: R.~Menthal * * * *||||||
 [Gc]2 [CGA] G-[GB]c | [Fd]6 | B2 B B>cd | c3 c3 | [Fd]2 [DFB] ^G-[Gc][Gd] | c6 | .d3 z3 | B3 d3 | %14
w: ||||||||
 A>BA [FA][EG][CE] | D6 | G2 G G2 G | G3 F3 | D3 E2 =F | F6 | B3 B2 B | B3 A3 | F3 [CF]2 [CE] | %23
w: |||||||||
 D6 |] %24
w: |
V:2
 z3 .A,3 | [D,B,D]3 [D,A,D]3 | [G,D]2 F, F,E,D, | A,,6 | D,2 D, z E[D,D] | [D,D]3 [D,A,]3 | %6
 z z/[K:treble] B/E, z D[A,EG] | [D,D]6 | [G,DG]2 [G,DG] [G,DG]2 [G,B,G] | [A,G]3 [A,G]3 | %10
 z z/ c/[K:bass]D, z C[E,B,] | A3 z3 | [D,A,]2 [D,A,] z CD, | [G,B,G]3 [G,B,G]3 | %14
 F>G[A,F][K:bass] [A,,A,]2 [A,,G,] | [D,F,]6 | [D,B,D]2 [D,B,D] [D,B,D]2 [D,B,D] | %17
 [D,B,D]3 [D,A,D]3 | [D,F,]3 [D,G,D]2 [D,^G,D] | [D,A,D]6 | [G,D]3 [G,D]2 [G,D] | [G,D]3 [F,A,D]3 | %22
 [A,D]3 [A,,A,]2 [A,,G,] | [D,F,]6 |] %24
V:3
 [D,A,D]2 [D,A,D] [D,D]-[D,^G,D][D,A,D] | x6 | x6 | x6 | z3 .D,3 | x6 | .[E,A,]3[K:treble] .A,3 | %7
 x6 | x6 | x6 | .[D,A,]3[K:bass] .E,3 | A,6 | z3 .D,3 | x6 | .A,3[K:bass] z3 | x6 | x6 | x6 | x6 | %19
 x6 | x6 | x6 | x6 | x6 |] %24
V:4
 x6 | x6 | z3 .A,3 | x6 | x6 | x6 | z3 .[CA]3 | x6 | x6 | x6 | z3 .[DB]3 | z3 G3 | %12
 F->[Fc][Fd] [DF][EG][=CFA] | x6 | x6 | x6 | x6 | x6 | x6 | x6 | x6 | x6 | x6 | x6 |] %24

